assets/icons/standard/employee_asset.svg

<?xml version="1.0"?><svg xmlns="http://www.w3.org/2000/svg" width="100" height="100" viewBox="0 0 100 100"><title></title><path d="m74.8 20.3h-49.6a5 5 0 0 0-5 5v34.3a5 5 0 0 0 5 5h49.5a5 5 0 0 0 5-5v-34.4a4.9 4.9 0 0 0-4.9-4.9z m-2.5 34.9a2 2 0 0 1-1.9 1.9h-40.8a1.9 1.9 0 0 1-1.9-1.9v-25.6a2 2 0 0 1 1.9-1.9h40.7a2 2 0 0 1 2 1.9z m-31 17.1a5 5 0 0 0-5 5v0.6a2 2 0 0 0 1.9 1.9h23.5a2 2 0 0 0 1.9-1.9v-0.6a5 5 0 0 0-5-5z" fill="#fff"></path><circle cx="50.1" cy="37.6" r="5.8" fill="#fff"></circle><path d="m50.2 44.4h-0.4a8.8 8.8 0 0 0-8.7 7.5c0 0.4 0.1 1.2 1.5 1.2h14.9c1.4 0 1.5-0.9 1.5-1.2a9 9 0 0 0-8.8-7.5z" fill="#fff"></path></svg>

<svg xmlns="http://www.w3.org/2000/svg" width="100" height="100" viewBox="0 0 100 100"><path d="M74.8,20.3H25.2a5,5,0,0,0-5,5V59.6a5,5,0,0,0,5,5H74.7a5,5,0,0,0,5-5V25.2A4.91,4.91,0,0,0,74.8,20.3ZM72.3,55.2a2,2,0,0,1-1.9,1.9H29.6a1.9,1.9,0,0,1-1.9-1.9V29.6a2,2,0,0,1,1.9-1.9H70.3a2,2,0,0,1,2,1.9Z" fill="#fff"/><path d="M41.3,72.3a5,5,0,0,0-5,5v.6a2,2,0,0,0,1.9,1.9H61.7a2,2,0,0,0,1.9-1.9v-.6a5,5,0,0,0-5-5Z" fill="#fff"/><circle cx="50.1" cy="37.6" r="5.8" fill="#fff"/><path d="M50.2,44.4h-.4a8.83,8.83,0,0,0-8.7,7.5c0,.4.1,1.2,1.5,1.2H57.5c1.4,0,1.5-.9,1.5-1.2A9,9,0,0,0,50.2,44.4Z" fill="#fff"/></svg>
